!!!COM: Bach, Johann Sebastian
!!!OTL@@DE: 320. Gott sei uns gn&auml;dig und barmherzig
!!!OTL@EN: God be gracious and merciful to us
!!!SCA: BWV 323
**kern	**kern	**kern	**kern
*staff2	*staff2	*staff1	*staff1
*Iorgan	*Iorgan	*Iorgan	*Iorgan
!bass	!tenor	!alto	!sprno
*clefF4	*clefF4	*clefG2	*clefG2
*k[f#c#g#]	*k[f#c#g#]	*k[f#c#g#]	*k[f#c#g#]
*met(C)	*met(C)	*met(C)	*met(C)
*M4/4	*M4/4	*M4/4	*M4/4
*MM110	*MM110	*MM110	*MM110
=1-	=1-	=1-	=1-
2F#\	2A/	2f#\	2cc#/
2G#\	2B/	2e\	2ee/
=2	=2	=2	=2
4A\	4c#/	4e\	4cc#/
4G#\	4B/	4e#\	4cc#/
4F#\	4A/	4e#\	4cc#/
4E#\	4G#/	4g#\	4cc#/
=3	=3	=3	=3
4F#\	4A/	4f#\	2dd/
4G#\	2B/	2e\	.
4A\	.	.	2cc#/
4F#\	4A/	4f#\	.
=4	=4	=4	=4
4D\	2A/	2f#\	1b
4BB\	.	.	.
2E\	2G#/	2e\	.
=5	=5	=5	=5
1AA;	1A;	1e;	1a;
=6	=6	=6	=6
4AA\	2A/	1e	2cc#/
4BB\	.	.	.
4C#\	2A/	.	2ee/
4D\	.	.	.
=7	=7	=7	=7
2E\	4G#/	4e\	4b/
.	4B/	4g#\	4b/
2D#\	4A/	4f#\	4b/
.	4f#/	4a\	4b/
=8	=8	=8	=8
2E\	2e/	2g#\	2b/
2Dn\	2B/	2f#\	4f#/
.	.	.	4g#/
=9	=9	=9	=9
1C#	2c#/	2.f#\	2a/
.	2B/	.	2g#/
.	.	4e#\	.
=10	=10	=10	=10
4FF#\	2A#/	2c#\	[1f#
4E\	.	.	.
4D\	[2B/	[2d\	.
4BB\	.	.	.
=11	=11	=11	=11
1FF#;	2B/]	2d\]	1f#;]
.	2A#;/	2c#;\	.
==	==	==	==
*-	*-	*-	*-
!!!ENC: Craig Stuart Sapp
!!!END: 2004/12/06/
!!chor2scor: -l 1 -s 0.6 -o %b.pmx
